papirus/48x48/apps/kodi.svg

<svg height="48" viewBox="0 0 48.000001 48.000001" width="48" xmlns="http://www.w3.org/2000/svg"><rect fill="#fff" height="28.94772" rx="1.091383" ry="1.1832502" transform="matrix(.7071068 .70710677 -.7071068 .70710677 0 0)" width="28.94772" x="19.467266" y="-14.473859"/><path d="m23.980469 4c-.29072.0117415-.584645.1354262-.816407.3671875l-6.164062 6.1640625v16.933594l15.466797-15.466797-7.695313-7.6953126c-.213286-.2132868-.499017-.3139496-.789062-.3027344a1.8185123 1.8183481 0 0 0 -.001953 0zm-11.980469 11.53125l-7.6328125 7.632812c-.229648.229648-.3515874.52045-.3652344.808594a1.8185123 1.8183481 0 0 0 0 .015625c-.0095685.287913.089012.571434.3007813.783203l7.6953126 7.695313h.001953zm24.001953.001953l-8.349609 8.349609 8.466797 8.466797 7.513671-7.513671c.229648-.229648.351588-.52045.365235-.808594a1.8185123 1.8183481 0 0 0 0-.015625c.009568-.287913-.089012-.571434-.300781-.783203zm-11.884765 11.884766l-8.583985 8.583984 7.695313 7.695313c.213286.213286.499017.313949.789062.302734a1.8185123 1.8183481 0 0 0  .001953 0c .29072-.011742.584645-.135426.816407-.367188l7.748046-7.748046z" fill="#31afe1"/><path d="m23.980469 4c-.29072.0117415-.584645.135426-.816407.3671875l-18.7968745 18.7968745c-.3798436.379844-.4502442.920214-.234375 1.341797.0597416-.121268.1320103-.239432.234375-.341797l18.7968745-18.7968745c.463524-.4635231 1.179887-.4919884 1.607422-.0644531l18.925782 18.9257816c.077182.077182.122366.17275.169922.265625.210777-.427852.163196-.932507-.169922-1.265625l-18.925782-18.9257816c-.213767-.2137677-.500295-.3144759-.791015-.3027344z" fill="#fff" opacity=".2"/><path d="m43.867188 23.494141c-.059742.121268-.132011.239432-.234376.341797l-18.796874 18.796874c-.463524.463524-1.179887.491989-1.607422.064454l-18.9257816-18.925782c-.0771826-.077182-.122366-.17275-.1699219-.265625-.2107777.427852-.1631963.932507.1699219 1.265625l18.9257816 18.925782c.427535.427535 1.143898.39907 1.607422-.064454l18.796874-18.796874c.379844-.379844.450245-.920214.234376-1.341797z" opacity=".3"/></svg>

<?xml version="1.0" encoding="UTF-8" standalone="no"?>
<!-- Created with Inkscape (http://www.inkscape.org/) -->

<svg
   xmlns:dc="http://purl.org/dc/elements/1.1/"
   xmlns:cc="http://creativecommons.org/ns#"
   xmlns:rdf="http://www.w3.org/1999/02/22-rdf-syntax-ns#"
   xmlns:svg="http://www.w3.org/2000/svg"
   xmlns="http://www.w3.org/2000/svg"
   xmlns:sodipodi="http://sodipodi.sourceforge.net/DTD/sodipodi-0.dtd"
   xmlns:inkscape="http://www.inkscape.org/namespaces/inkscape"
   id="svg4163"
   height="48"
   width="48"
   version="1.1"
   viewBox="0 0 48.000001 48.000001"
   inkscape:version="0.91 r13725"
   sodipodi:docname="kodi.svg">
  <defs
     id="defs10" />
  <sodipodi:namedview
     pagecolor="#737373"
     bordercolor="#666666"
     borderopacity="1"
     objecttolerance="10"
     gridtolerance="10"
     guidetolerance="10"
     inkscape:pageopacity="0"
     inkscape:pageshadow="2"
     inkscape:window-width="1600"
     inkscape:window-height="849"
     id="namedview8"
     showgrid="false"
     inkscape:zoom="1"
     inkscape:cx="13.009944"
     inkscape:cy="24.899885"
     inkscape:window-x="0"
     inkscape:window-y="0"
     inkscape:window-maximized="1"
     inkscape:current-layer="svg4163" />
  <metadata
     id="metadata4168">
    <rdf:RDF>
      <cc:Work
         rdf:about="">
        <dc:format>image/svg+xml</dc:format>
        <dc:type
           rdf:resource="http://purl.org/dc/dcmitype/StillImage" />
        <dc:title></dc:title>
      </cc:Work>
    </rdf:RDF>
  </metadata>
  <rect
     style="opacity:1;fill:#ffffff;fill-opacity:1;stroke:none;stroke-width:4;stroke-linecap:round;stroke-linejoin:round;stroke-miterlimit:4;stroke-dasharray:none;stroke-opacity:1"
     id="rect4138"
     width="28.94772"
     height="28.94772"
     x="19.467266"
     y="-14.473859"
     rx="1.091383"
     ry="1.1832502"
     transform="matrix(0.7071068,0.70710677,-0.7071068,0.70710677,0,0)" />
  <path
     style="color:#000000;text-indent:0;text-decoration:none;text-decoration-line:none;text-decoration-style:solid;text-decoration-color:#000000;text-transform:none;block-progression:tb;white-space:normal;isolation:auto;mix-blend-mode:normal;solid-color:#000000;fill:#31afe1;color-rendering:auto;image-rendering:auto;shape-rendering:auto"
     d="M 23.980469 4 C 23.689749 4.0117415 23.395824 4.1354262 23.164062 4.3671875 L 17 10.53125 L 17 27.464844 L 32.466797 11.998047 L 24.771484 4.3027344 C 24.558198 4.0894476 24.272467 3.9887848 23.982422 4 A 1.8185123 1.8183481 0 0 0 23.980469 4 z M 12 15.53125 L 4.3671875 23.164062 C 4.1375395 23.39371 4.0156001 23.684512 4.0019531 23.972656 A 1.8185123 1.8183481 0 0 0 4.0019531 23.988281 C 3.9923846 24.276194 4.0909651 24.559715 4.3027344 24.771484 L 11.998047 32.466797 L 12 32.466797 L 12 15.53125 z M 36.001953 15.533203 L 27.652344 23.882812 L 36.119141 32.349609 L 43.632812 24.835938 C 43.86246 24.60629 43.9844 24.315488 43.998047 24.027344 A 1.8185123 1.8183481 0 0 0 43.998047 24.011719 C 44.007615 23.723806 43.909035 23.440285 43.697266 23.228516 L 36.001953 15.533203 z M 24.117188 27.417969 L 15.533203 36.001953 L 23.228516 43.697266 C 23.441802 43.910552 23.727533 44.011215 24.017578 44 A 1.8185123 1.8183481 0 0 0 24.019531 44 C 24.310251 43.988258 24.604176 43.864574 24.835938 43.632812 L 32.583984 35.884766 L 24.117188 27.417969 z "
     id="rect4762" />
  <path
     style="opacity:0.2;fill:#ffffff;fill-opacity:1;stroke:none;stroke-width:4;stroke-linecap:round;stroke-linejoin:round;stroke-miterlimit:4;stroke-dasharray:none;stroke-opacity:1"
     d="M 23.980469 4 C 23.689749 4.0117415 23.395824 4.135426 23.164062 4.3671875 L 4.3671875 23.164062 C 3.9873439 23.543906 3.9169433 24.084276 4.1328125 24.505859 C 4.1925541 24.384591 4.2648228 24.266427 4.3671875 24.164062 L 23.164062 5.3671875 C 23.627586 4.9036644 24.343949 4.8751991 24.771484 5.3027344 L 43.697266 24.228516 C 43.774448 24.305698 43.819632 24.401266 43.867188 24.494141 C 44.077965 24.066289 44.030384 23.561634 43.697266 23.228516 L 24.771484 4.3027344 C 24.557717 4.0889667 24.271189 3.9882585 23.980469 4 z "
     id="rect4149" />
  <path
     style="opacity:0.3;fill:#000000;fill-opacity:1;stroke:none;stroke-width:4;stroke-linecap:round;stroke-linejoin:round;stroke-miterlimit:4;stroke-dasharray:none;stroke-opacity:1"
     d="M 43.867188 23.494141 C 43.807446 23.615409 43.735177 23.733573 43.632812 23.835938 L 24.835938 42.632812 C 24.372414 43.096336 23.656051 43.124801 23.228516 42.697266 L 4.3027344 23.771484 C 4.2255518 23.694302 4.1803684 23.598734 4.1328125 23.505859 C 3.9220348 23.933711 3.9696162 24.438366 4.3027344 24.771484 L 23.228516 43.697266 C 23.656051 44.124801 24.372414 44.096336 24.835938 43.632812 L 43.632812 24.835938 C 44.012656 24.456094 44.083057 23.915724 43.867188 23.494141 z "
     id="rect4159" />
</svg>
